X:16
T: Miss Cathy Chilcott
R: Reel
M: 4/4
K: Dmix
"D"D3F A(BcA) | d3(c BA)c(B | AGFG) "C"c(GAG) | "D"A(GFD) "C"CDDu(C |
"D"D3F) A(BcA) | d3(c BA)c(B | AGFG) "C"c(GAG) |1 "D"A(GFD) "C"CDDC :|2 "D"A(GFD) CDD2 ||
"D"a3a add2 | "G"g(fef) "D"g~d3 | "G"ve2(dB "C"c2)BG | "D"Ad A/A/d gaag |
"D"a3a add2 | "G"g(fef) "D"g~d3 | "G"ve2(dB "C"c2)BG |1 "D"Ad Ad gaag :|2 "D"Ad(AF) "G"(GF)"A"EF ||

